X:171
T:Song for Ireland
C:Phil Colclough
M:C
L:1/4
K:C
"C"E>E GG|"G"D3 E|"F"F2 "C"EC|"F"A,>G, "G"A,B,|"C"C4|!
w:Walk-ing all the day near tall towers where fal- cons build their nests.
"C"E>E GG|"G"D3 E|"F"F>F "C"EC|"F"A,>G, "G"A,B,|"C"C4|!
w:Sil- ver winged they fly, they know the call of fre- dom in their breasts.
"F"FEFG|"Dm"A>G "G"GF|"C"E>C "F"C>D|E2 DC|"G_(G7)"D4|!
w:Saw Black Head a- gainst the sky where twis- ted rocks they run to the sea.
z4||"@-100,-25 Chorus:""F"F<G AG|"C"E>D "Am"CE|"C"E>F GC|"F"(C/D/) E "G"D>E|!
w:Liv- ing on your wes-tern shore, saw sum- mer sun- sets, asked_ for more. I
"F"F<G "G"A>G|"C"EC "G"D>E|"F"F>F "Am"EC|"F"(A,"G"B,) "C"C2-|C2 z2|]
w:stood by your At- lan- tic Sea and sang a song for Ire- -land_
W:
W:Talking all the day with true friends
W:who try to make you stay
W:Telling jokes and news,
W:singing songs to pass the night away
W:Watched the Galway salmon run
W:like silver dancing, darting in the sun
W: ~ Chorus ~
W:
W:
W:Drinking all the day in old pubs
W:where fiddlers love to play
W:Saw one touched the bow.
W:He played a reel
W:which seemed so fine and gay
W:Stood on Dingle beach
W:and cast in wild foam we found Atlantic bass
W: ~ Chorus . . . instrumental ~
W:
W:
W:Dreaming in the night I saw a land
W:where no man had to fight
W:Waking in your dawn
W:I saw you crying in the morning light
W:Lying where the falcons fly,
W:they twist and turn all in your e'er blue sky
W: ~ Chorus ~

















